X: 1
T: Nanita Nana
O: Spanish
M: 6/8
L: 1/8
Q:1/4=50
K:F
DD/2E/2F/2G/2 AA/2A/2B/2G/2|AA/2A/2B/2G/2 dA2
GA/2B/2c/2B/2 A/2G/2F/2G/2A/2F/2|G/2F/2E/2F/2G/2E/2 F/2E/2D2|
DD/2E/2F/2G/2 AA/2A/2B/2G/2|AA/2A/2B/2G/2 dA2|
GA/2B/2c/2B/2 A/2G/2F/2G/2A/2F/2|G/2F/2E/2F/2G/2E/2 F/2E/2D2|
_G/2A/2d_d/2=B/2 dA2|=BA3/2G/2 _G/2=G/2A2|
_G/2A/2d_d/2=B/2 dA2|=BA3/2G/2 _G/2=G/2A2|
BB/2B/2B/2B/2 AA2|GGG _G/2=G/2A2|
GG/2G/2G/2G/2 _GG2|EEE _G/2E/2D2|
BB/2B/2B/2B/2 AA2|GGG _G/2=G/2A2|
GG/2G/2G/2G/2 _GG2|EEE _G/2E/2D2|]